austria/municipalities/32520.svg

<?xml version="1.0" encoding="UTF-8"?>
<!DOCTYPE svg PUBLIC "-//W3C//DTD SVG 1.1//EN" "http://www.w3.org/Graphics/SVG/1.1/DTD/svg11.dtd">
<svg xmlns="http://www.w3.org/2000/svg" version="1.1" width="80px" height="88px" style="shape-rendering:geometricPrecision; text-rendering:geometricPrecision; image-rendering:optimizeQuality; fill-rule:evenodd; clip-rule:evenodd" xmlns:xlink="http://www.w3.org/1999/xlink">
<g><path style="opacity:1" fill="#eee6d2" d="M -0.5,-0.5 C 25.8333,-0.5 52.1667,-0.5 78.5,-0.5C 78.5,-0.166667 78.5,0.166667 78.5,0.5C 77.8333,0.5 77.1667,0.5 76.5,0.5C 51.1667,0.5 25.8333,0.5 0.5,0.5C 0.5,14.1667 0.5,27.8333 0.5,41.5C 0.166667,41.5 -0.166667,41.5 -0.5,41.5C -0.5,27.5 -0.5,13.5 -0.5,-0.5 Z"/></g>
<g><path style="opacity:1" fill="#e7db0e" d="M 76.5,0.5 C 51.8333,1.16667 27.1667,1.83333 2.5,2.5C 2.5,15.8333 2.5,29.1667 2.5,42.5C 2.89248,46.3424 3.89248,50.0091 5.5,53.5C 5.63101,54.2389 5.46434,54.9056 5,55.5C 4.32986,52.8261 3.16319,50.4927 1.5,48.5C 0.531782,46.3926 0.198448,44.0593 0.5,41.5C 0.5,27.8333 0.5,14.1667 0.5,0.5C 25.8333,0.5 51.1667,0.5 76.5,0.5 Z"/></g>
<g><path style="opacity:1" fill="#caa411" d="M 76.5,0.5 C 77.1667,0.5 77.8333,0.5 78.5,0.5C 78.829,14.3435 78.4957,28.0102 77.5,41.5C 77.8288,28.3226 77.4955,15.3226 76.5,2.5C 51.8333,2.5 27.1667,2.5 2.5,2.5C 27.1667,1.83333 51.8333,1.16667 76.5,0.5 Z"/></g>
<g><path style="opacity:1" fill="#04001c" d="M 2.5,2.5 C 27.1667,2.5 51.8333,2.5 76.5,2.5C 76.5,2.83333 76.5,3.16667 76.5,3.5C 75.8333,3.5 75.1667,3.5 74.5,3.5C 50.8333,3.5 27.1667,3.5 3.5,3.5C 3.82881,16.6774 3.49548,29.6774 2.5,42.5C 2.5,29.1667 2.5,15.8333 2.5,2.5 Z"/></g>
<g><path style="opacity:1" fill="#1e1917" d="M 74.5,3.5 C 67.451,11.3833 59.951,18.7166 52,25.5C 51.2204,27.3869 51.3871,29.0536 52.5,30.5C 52.5,30.8333 52.5,31.1667 52.5,31.5C 50.8235,30.8166 50.1568,29.4832 50.5,27.5C 49.1667,27.5 47.8333,27.5 46.5,27.5C 46.5,28.5 46.5,29.5 46.5,30.5C 45.5,30.5 44.5,30.5 43.5,30.5C 43.81,27.2869 43.4767,24.2869 42.5,21.5C 39.2869,21.19 36.2869,21.5233 33.5,22.5C 32.6862,24.631 32.1862,26.9644 32,29.5C 31.6667,29.8333 31.3333,30.1667 31,30.5C 30.5172,29.552 30.3505,28.552 30.5,27.5C 29.1266,27.3433 27.7932,27.51 26.5,28C 25.1667,28.6667 25.1667,29.3333 26.5,30C 25.6753,31.6883 24.6753,31.8549 23.5,30.5C 22.7025,30.9569 22.3691,31.6236 22.5,32.5C 21.596,31.791 21.2627,30.791 21.5,29.5C 20.1083,28.478 18.775,28.8113 17.5,30.5C 16.846,32.1151 16.346,33.7818 16,35.5C 14.8456,33.0426 13.5123,33.0426 12,35.5C 11.501,39.8206 11.3343,44.1539 11.5,48.5C 11.3359,51.1873 11.5026,53.854 12,56.5C 13.6692,57.8463 14.8358,59.513 15.5,61.5C 13.8102,61.8564 12.8102,62.8564 12.5,64.5C 9.9044,60.9695 7.57107,57.3029 5.5,53.5C 3.89248,50.0091 2.89248,46.3424 2.5,42.5C 3.49548,29.6774 3.82881,16.6774 3.5,3.5C 27.1667,3.5 50.8333,3.5 74.5,3.5 Z"/></g>
<g><path style="opacity:1" fill="#8c0531" d="M 74.5,3.5 C 75.1667,3.5 75.8333,3.5 76.5,3.5C 76.8794,18.8727 76.3794,34.2061 75,49.5C 72.8217,58.685 67.9883,66.185 60.5,72C 53.2684,76.7769 45.935,81.2769 38.5,85.5C 28.0034,80.6605 19.3367,73.6605 12.5,64.5C 12.8102,62.8564 13.8102,61.8564 15.5,61.5C 19.4387,64.3019 23.772,66.3019 28.5,67.5C 28.8417,68.3382 29.5084,68.6716 30.5,68.5C 31.8333,68.5 33.1667,68.5 34.5,68.5C 34.3341,63.4889 34.5007,58.4889 35,53.5C 37.6788,50.8285 40.0121,51.1618 42,54.5C 42.4992,59.1548 42.6658,63.8215 42.5,68.5C 43.5,68.5 44.5,68.5 45.5,68.5C 46.791,68.7373 47.791,68.404 48.5,67.5C 61.2342,64.4415 66.9009,56.4415 65.5,43.5C 65.2208,40.8822 64.5541,38.3822 63.5,36C 64.6039,34.8687 64.2705,34.0354 62.5,33.5C 61.8333,33.8333 61.1667,34.1667 60.5,34.5C 59.6002,28.8595 56.9335,27.5262 52.5,30.5C 51.3871,29.0536 51.2204,27.3869 52,25.5C 59.951,18.7166 67.451,11.3833 74.5,3.5 Z"/></g>
<g><path style="opacity:1" fill="#999917" d="M 37.5,7.5 C 38.6266,8.12167 39.6266,8.95501 40.5,10C 39.1509,10.7724 38.3176,11.9391 38,13.5C 36.7586,11.4521 36.5919,9.45212 37.5,7.5 Z"/></g>
<g><path style="opacity:1" fill="#f4f004" d="M 37.5,14.5 C 39.8089,15.3877 41.4756,17.0544 42.5,19.5C 39.5,20.8333 36.5,20.8333 33.5,19.5C 34.8569,17.8144 36.1902,16.1477 37.5,14.5 Z"/></g>
<g><path style="opacity:1" fill="#dfdf0d" d="M 52.5,31.5 C 51.2067,32.1582 49.7067,32.4915 48,32.5C 46.0145,32.4313 44.5145,31.7647 43.5,30.5C 44.5,30.5 45.5,30.5 46.5,30.5C 46.5,29.5 46.5,28.5 46.5,27.5C 47.8333,27.5 49.1667,27.5 50.5,27.5C 50.1568,29.4832 50.8235,30.8166 52.5,31.5 Z"/></g>
<g><path style="opacity:1" fill="#f9f602" d="M 21.5,29.5 C 21.2627,30.791 21.596,31.791 22.5,32.5C 23.552,32.3505 24.552,32.5172 25.5,33C 23.9586,34.3712 22.6253,35.8712 21.5,37.5C 19.4559,38.0312 17.7893,39.1978 16.5,41C 16.8333,41.3333 17.1667,41.6667 17.5,42C 16.255,42.7914 14.9217,43.2914 13.5,43.5C 13.5191,41.9397 13.8524,40.4397 14.5,39C 17.1804,35.9995 19.5137,32.8328 21.5,29.5 Z"/></g>
<g><path style="opacity:1" fill="#e4df15" d="M 42.5,21.5 C 41.8333,22.1667 41.1667,22.8333 40.5,23.5C 38.6921,24.9179 38.0254,26.9179 38.5,29.5C 39.8333,29.5 41.1667,29.5 42.5,29.5C 42.6747,31.6208 42.3414,33.6208 41.5,35.5C 36.7531,34.5719 32.0864,33.4052 27.5,32C 27.727,30.8647 28.0604,29.698 28.5,28.5C 29.3857,29.325 29.719,30.325 29.5,31.5C 33.0034,31.6649 35.0034,29.9982 35.5,26.5C 35.1971,24.8857 34.5305,23.5523 33.5,22.5C 36.2869,21.5233 39.2869,21.19 42.5,21.5 Z"/></g>
<g><path style="opacity:1" fill="#7b771b" d="M 42.5,21.5 C 43.4767,24.2869 43.81,27.2869 43.5,30.5C 44.5145,31.7647 46.0145,32.4313 48,32.5C 49.7067,32.4915 51.2067,32.1582 52.5,31.5C 52.5,31.1667 52.5,30.8333 52.5,30.5C 56.9335,27.5262 59.6002,28.8595 60.5,34.5C 61.1667,34.1667 61.8333,33.8333 62.5,33.5C 64.2705,34.0354 64.6039,34.8687 63.5,36C 64.5541,38.3822 65.2208,40.8822 65.5,43.5C 64.609,44.1098 63.609,44.4431 62.5,44.5C 62.2965,46.3904 62.9632,47.8904 64.5,49C 63.0692,49.4652 61.9025,50.2986 61,51.5C 60.6924,50.6919 60.1924,50.0253 59.5,49.5C 58.7022,51.0777 58.2022,52.7444 58,54.5C 55.8223,57.4685 54.6556,57.1351 54.5,53.5C 56.0481,53.1788 56.7148,52.1788 56.5,50.5C 52.351,49.9197 48.6843,50.5864 45.5,52.5C 44.1224,51.4549 43.1224,50.1216 42.5,48.5C 46.7352,49.436 51.0685,49.7693 55.5,49.5C 55.5,46.5 55.5,43.5 55.5,40.5C 54.209,40.2627 53.209,40.596 52.5,41.5C 51.5,41.5 50.5,41.5 49.5,41.5C 45.5,40.1667 41.5,40.1667 37.5,41.5C 36.5,41.5 35.5,41.5 34.5,41.5C 31.7131,40.5233 28.7131,40.19 25.5,40.5C 25.1667,40.5 24.8333,40.5 24.5,40.5C 24.8146,38.7741 24.9813,37.1075 25,35.5C 24.1841,36.8228 23.0174,37.4894 21.5,37.5C 22.6253,35.8712 23.9586,34.3712 25.5,33C 24.552,32.5172 23.552,32.3505 22.5,32.5C 22.3691,31.6236 22.7025,30.9569 23.5,30.5C 24.6753,31.8549 25.6753,31.6883 26.5,30C 25.1667,29.3333 25.1667,28.6667 26.5,28C 27.7932,27.51 29.1266,27.3433 30.5,27.5C 30.3505,28.552 30.5172,29.552 31,30.5C 31.3333,30.1667 31.6667,29.8333 32,29.5C 32.1862,26.9644 32.6862,24.631 33.5,22.5C 34.5305,23.5523 35.1971,24.8857 35.5,26.5C 35.0034,29.9982 33.0034,31.6649 29.5,31.5C 29.719,30.325 29.3857,29.325 28.5,28.5C 28.0604,29.698 27.727,30.8647 27.5,32C 32.0864,33.4052 36.7531,34.5719 41.5,35.5C 42.3414,33.6208 42.6747,31.6208 42.5,29.5C 42.9746,26.9179 42.3079,24.9179 40.5,23.5C 41.1667,22.8333 41.8333,22.1667 42.5,21.5 Z"/></g>
<g><path style="opacity:1" fill="#edeb0b" d="M 62.5,44.5 C 61.596,45.209 61.2627,46.209 61.5,47.5C 59.6096,47.2965 58.1096,47.9632 57,49.5C 57.441,42.87 57.1077,36.2033 56,29.5C 57.147,31.7312 58.147,34.0645 59,36.5C 59.414,36.9574 59.914,37.2907 60.5,37.5C 60.8333,36.8333 61.1667,36.1667 61.5,35.5C 62.0722,37.9171 63.0722,40.0838 64.5,42C 63.6195,42.7083 62.9528,43.5416 62.5,44.5 Z"/></g>
<g><path style="opacity:1" fill="#413b1c" d="M 40.5,23.5 C 42.3079,24.9179 42.9746,26.9179 42.5,29.5C 41.1667,29.5 39.8333,29.5 38.5,29.5C 38.0254,26.9179 38.6921,24.9179 40.5,23.5 Z"/></g>
<g><path style="opacity:1" fill="#fdf800" d="M 41.5,35.5 C 45.7685,34.6274 50.1018,34.2941 54.5,34.5C 54.4208,35.9305 54.7542,37.2638 55.5,38.5C 45.5166,39.6656 35.5166,39.8322 25.5,39C 26.3802,37.6439 26.7135,36.1439 26.5,34.5C 30.6565,34.3315 34.6565,34.9982 38.5,36.5C 39.7261,36.4805 40.7261,36.1471 41.5,35.5 Z"/></g>
<g><path style="opacity:1" fill="#98951a" d="M 21.5,29.5 C 19.5137,32.8328 17.1804,35.9995 14.5,39C 13.8524,40.4397 13.5191,41.9397 13.5,43.5C 14.2789,45.9272 15.4455,45.9272 17,43.5C 17.3934,45.7163 16.8934,47.7163 15.5,49.5C 16.463,50.3635 16.463,51.0302 15.5,51.5C 14.4305,50.0905 13.0972,49.0905 11.5,48.5C 11.3343,44.1539 11.501,39.8206 12,35.5C 13.5123,33.0426 14.8456,33.0426 16,35.5C 16.346,33.7818 16.846,32.1151 17.5,30.5C 18.775,28.8113 20.1083,28.478 21.5,29.5 Z"/></g>
<g><path style="opacity:1" fill="#f8f803" d="M 24.5,40.5 C 22.8008,40.6602 21.1341,40.4935 19.5,40C 20.3805,39.2917 21.0472,38.4584 21.5,37.5C 23.0174,37.4894 24.1841,36.8228 25,35.5C 24.9813,37.1075 24.8146,38.7741 24.5,40.5 Z"/></g>
<g><path style="opacity:1" fill="#ede908" d="M 25.5,40.5 C 28.7131,40.19 31.7131,40.5233 34.5,41.5C 34.5,42.5 34.5,43.5 34.5,44.5C 35.5,44.5 36.5,44.5 37.5,44.5C 37.5,43.5 37.5,42.5 37.5,41.5C 41.5,40.1667 45.5,40.1667 49.5,41.5C 49.5,42.5 49.5,43.5 49.5,44.5C 50.5,44.5 51.5,44.5 52.5,44.5C 52.5,43.5 52.5,42.5 52.5,41.5C 53.209,40.596 54.209,40.2627 55.5,40.5C 55.5,43.5 55.5,46.5 55.5,49.5C 51.0685,49.7693 46.7352,49.436 42.5,48.5C 39.2174,45.8627 35.8841,46.0294 32.5,49C 30.1902,49.4966 27.8568,49.6633 25.5,49.5C 25.5,46.5 25.5,43.5 25.5,40.5 Z"/></g>
<g><path style="opacity:1" fill="#0b061b" d="M 28.5,41.5 C 29.5,41.5 30.5,41.5 31.5,41.5C 31.5,42.5 31.5,43.5 31.5,44.5C 30.5,44.5 29.5,44.5 28.5,44.5C 28.5,43.5 28.5,42.5 28.5,41.5 Z"/></g>
<g><path style="opacity:1" fill="#110d1b" d="M 34.5,41.5 C 35.5,41.5 36.5,41.5 37.5,41.5C 37.5,42.5 37.5,43.5 37.5,44.5C 36.5,44.5 35.5,44.5 34.5,44.5C 34.5,43.5 34.5,42.5 34.5,41.5 Z"/></g>
<g><path style="opacity:1" fill="#07041b" d="M 39.5,41.5 C 40.5,41.5 41.5,41.5 42.5,41.5C 42.5,42.5 42.5,43.5 42.5,44.5C 41.5,44.5 40.5,44.5 39.5,44.5C 39.5,43.5 39.5,42.5 39.5,41.5 Z"/></g>
<g><path style="opacity:1" fill="#07041b" d="M 44.5,41.5 C 45.5,41.5 46.5,41.5 47.5,41.5C 47.5,42.5 47.5,43.5 47.5,44.5C 46.5,44.5 45.5,44.5 44.5,44.5C 44.5,43.5 44.5,42.5 44.5,41.5 Z"/></g>
<g><path style="opacity:1" fill="#07041b" d="M 49.5,41.5 C 50.5,41.5 51.5,41.5 52.5,41.5C 52.5,42.5 52.5,43.5 52.5,44.5C 51.5,44.5 50.5,44.5 49.5,44.5C 49.5,43.5 49.5,42.5 49.5,41.5 Z"/></g>
<g><path style="opacity:1" fill="#66621e" d="M 21.5,37.5 C 21.0472,38.4584 20.3805,39.2917 19.5,40C 21.1341,40.4935 22.8008,40.6602 24.5,40.5C 24.8333,40.5 25.1667,40.5 25.5,40.5C 25.5,43.5 25.5,46.5 25.5,49.5C 27.8568,49.6633 30.1902,49.4966 32.5,49C 35.8841,46.0294 39.2174,45.8627 42.5,48.5C 38.2686,46.7674 34.7686,47.7674 32,51.5C 30.5962,57.0438 30.0962,62.7104 30.5,68.5C 29.5084,68.6716 28.8417,68.3382 28.5,67.5C 30.1464,63.9107 29.4797,60.744 26.5,58C 27.5504,55.4968 26.5504,53.9968 23.5,53.5C 22.8695,58.1607 21.0361,58.494 18,54.5C 17.9504,52.256 17.1171,50.5893 15.5,49.5C 16.8934,47.7163 17.3934,45.7163 17,43.5C 15.4455,45.9272 14.2789,45.9272 13.5,43.5C 14.9217,43.2914 16.255,42.7914 17.5,42C 17.1667,41.6667 16.8333,41.3333 16.5,41C 17.7893,39.1978 19.4559,38.0312 21.5,37.5 Z"/></g>
<g><path style="opacity:1" fill="#f4f304" d="M 18.5,41.5 C 20.604,41.2011 22.604,41.5344 24.5,42.5C 23.675,43.3857 22.675,43.719 21.5,43.5C 21.5,44.5 21.5,45.5 21.5,46.5C 22.5,46.5 23.5,46.5 24.5,46.5C 24.1019,50.7589 26.1019,52.5922 30.5,52C 29.7734,53.3988 29.2734,54.8988 29,56.5C 27.4524,52.6521 24.7857,51.6521 21,53.5C 19.2154,49.6952 18.382,45.6952 18.5,41.5 Z"/></g>
<g><path style="opacity:1" fill="#f4ef04" d="M 65.5,43.5 C 66.9009,56.4415 61.2342,64.4415 48.5,67.5C 46.631,65.3647 45.9644,62.6981 46.5,59.5C 49.5428,58.7951 51.2095,56.7951 51.5,53.5C 52.5,53.5 53.5,53.5 54.5,53.5C 54.6556,57.1351 55.8223,57.4685 58,54.5C 58.2022,52.7444 58.7022,51.0777 59.5,49.5C 60.1924,50.0253 60.6924,50.6919 61,51.5C 61.9025,50.2986 63.0692,49.4652 64.5,49C 62.9632,47.8904 62.2965,46.3904 62.5,44.5C 63.609,44.4431 64.609,44.1098 65.5,43.5 Z"/></g>
<g><path style="opacity:1" fill="#f9f702" d="M 42.5,48.5 C 43.1224,50.1216 44.1224,51.4549 45.5,52.5C 45.5,57.8333 45.5,63.1667 45.5,68.5C 44.5,68.5 43.5,68.5 42.5,68.5C 42.6658,63.8215 42.4992,59.1548 42,54.5C 40.0121,51.1618 37.6788,50.8285 35,53.5C 34.5007,58.4889 34.3341,63.4889 34.5,68.5C 33.1667,68.5 31.8333,68.5 30.5,68.5C 30.0962,62.7104 30.5962,57.0438 32,51.5C 34.7686,47.7674 38.2686,46.7674 42.5,48.5 Z"/></g>
<g><path style="opacity:1" fill="#eeda38" d="M 76.5,2.5 C 77.4955,15.3226 77.8288,28.3226 77.5,41.5C 77.5049,57.3236 70.8383,69.4902 57.5,78C 51.6666,81.0305 46,84.1971 40.5,87.5C 39.1667,87.5 37.8333,87.5 36.5,87.5C 24.1781,81.0129 13.8448,72.1795 5.5,61C 3.71414,56.9405 2.38081,52.7739 1.5,48.5C 3.16319,50.4927 4.32986,52.8261 5,55.5C 5.46434,54.9056 5.63101,54.2389 5.5,53.5C 7.57107,57.3029 9.9044,60.9695 12.5,64.5C 19.3367,73.6605 28.0034,80.6605 38.5,85.5C 45.935,81.2769 53.2684,76.7769 60.5,72C 67.9883,66.185 72.8217,58.685 75,49.5C 76.3794,34.2061 76.8794,18.8727 76.5,3.5C 76.5,3.16667 76.5,2.83333 76.5,2.5 Z"/></g>
<g><path style="opacity:1" fill="#66621c" d="M 45.5,52.5 C 46.1614,53.7175 46.8281,55.0508 47.5,56.5C 48.3857,55.675 48.719,54.675 48.5,53.5C 49.5,53.5 50.5,53.5 51.5,53.5C 51.2095,56.7951 49.5428,58.7951 46.5,59.5C 45.9644,62.6981 46.631,65.3647 48.5,67.5C 47.791,68.404 46.791,68.7373 45.5,68.5C 45.5,63.1667 45.5,57.8333 45.5,52.5 Z"/></g>
<g><path style="opacity:1" fill="#d5d214" d="M 54.5,53.5 C 53.5,53.5 52.5,53.5 51.5,53.5C 50.5,53.5 49.5,53.5 48.5,53.5C 48.719,54.675 48.3857,55.675 47.5,56.5C 46.8281,55.0508 46.1614,53.7175 45.5,52.5C 48.6843,50.5864 52.351,49.9197 56.5,50.5C 56.7148,52.1788 56.0481,53.1788 54.5,53.5 Z"/></g>
<g><path style="opacity:1" fill="#f9f302" d="M 11.5,48.5 C 13.0972,49.0905 14.4305,50.0905 15.5,51.5C 16.463,51.0302 16.463,50.3635 15.5,49.5C 17.1171,50.5893 17.9504,52.256 18,54.5C 21.0361,58.494 22.8695,58.1607 23.5,53.5C 26.5504,53.9968 27.5504,55.4968 26.5,58C 29.4797,60.744 30.1464,63.9107 28.5,67.5C 23.772,66.3019 19.4387,64.3019 15.5,61.5C 14.8358,59.513 13.6692,57.8463 12,56.5C 11.5026,53.854 11.3359,51.1873 11.5,48.5 Z"/></g>
</svg>

<svg xmlns="http://www.w3.org/2000/svg" width="80" height="88" style="shape-rendering:geometricPrecision;text-rendering:geometricPrecision;image-rendering:optimizeQuality;fill-rule:evenodd;clip-rule:evenodd"><path style="opacity:1" fill="#eee6d2" d="M-.5-.5h79v1H.5v41h-1v-42z"/><path style="opacity:1" fill="#e7db0e" d="m76.5.5-74 2v40a34.5 34.5 0 0 0 3 11 2.427 2.427 0 0 1-.5 2c-.67-2.674-1.837-5.007-3.5-7-.968-2.107-1.302-4.44-1-7V.5h76z"/><path style="opacity:1" fill="#caa411" d="M76.5.5h2a420.863 420.863 0 0 1-1 41 380.842 380.842 0 0 0-1-39h-74l74-2z"/><path style="opacity:1" fill="#04001c" d="M2.5 2.5h74v1h-73a380.845 380.845 0 0 1-1 39v-40z"/><path style="opacity:1" fill="#1e1917" d="M74.5 3.5a233.202 233.202 0 0 1-22.5 22c-.78 1.887-.613 3.554.5 5v1c-1.676-.683-2.343-2.017-2-4h-4v3h-3c.31-3.213-.023-6.213-1-9-3.213-.31-6.213.023-9 1-.814 2.131-1.314 4.464-1.5 7l-1 1a4.932 4.932 0 0 1-.5-3 8.434 8.434 0 0 0-4 .5c-1.333.667-1.333 1.333 0 2-.825 1.688-1.825 1.855-3 .5-.797.457-1.13 1.124-1 2-.904-.709-1.237-1.709-1-3-1.392-1.022-2.725-.689-4 1a28.04 28.04 0 0 0-1.5 5c-1.154-2.457-2.488-2.457-4 0a84.938 84.938 0 0 0-.5 13 32.437 32.437 0 0 0 .5 8c1.67 1.346 2.836 3.013 3.5 5-1.69.356-2.69 1.356-3 3a96.355 96.355 0 0 1-7-11 34.5 34.5 0 0 1-3-11 380.845 380.845 0 0 0 1-39h71z"/><path style="opacity:1" fill="#8c0531" d="M74.5 3.5h2c.38 15.373-.12 30.706-1.5 46-2.178 9.185-7.012 16.685-14.5 22.5a384.067 384.067 0 0 1-22 13.5c-10.497-4.84-19.163-11.84-26-21 .31-1.644 1.31-2.644 3-3a38.575 38.575 0 0 0 13 6c.342.838 1.008 1.172 2 1h4c-.166-5.011 0-10.011.5-15 2.679-2.672 5.012-2.338 7 1 .5 4.655.666 9.322.5 14h3c1.291.237 2.291-.096 3-1 12.734-3.058 18.4-11.059 17-24a24.963 24.963 0 0 0-2-7.5c1.104-1.131.77-1.965-1-2.5l-2 1c-.9-5.64-3.566-6.974-8-4-1.113-1.446-1.28-3.113-.5-5a233.202 233.202 0 0 0 22.5-22z"/><path style="opacity:1" fill="#999917" d="M37.5 7.5a10.52 10.52 0 0 1 3 2.5c-1.35.772-2.182 1.94-2.5 3.5-1.241-2.048-1.408-4.048-.5-6z"/><path style="opacity:1" fill="#f4f004" d="M37.5 14.5c2.309.888 3.976 2.554 5 5-3 1.333-6 1.333-9 0 1.357-1.686 2.69-3.352 4-5z"/><path style="opacity:1" fill="#dfdf0d" d="M52.5 31.5c-1.293.658-2.793.992-4.5 1-1.986-.069-3.486-.735-4.5-2h3v-3h4c-.343 1.983.324 3.317 2 4z"/><path style="opacity:1" fill="#f9f602" d="M21.5 29.5c-.237 1.291.096 2.291 1 3a4.932 4.932 0 0 1 3 .5 25.15 25.15 0 0 0-4 4.5c-2.044.531-3.71 1.698-5 3.5l1 1a10.123 10.123 0 0 1-4 1.5c.02-1.56.352-3.06 1-4.5 2.68-3 5.014-6.167 7-9.5z"/><path style="opacity:1" fill="#e4df15" d="m42.5 21.5-2 2c-1.808 1.418-2.475 3.418-2 6h4c.175 2.12-.159 4.12-1 6a138.434 138.434 0 0 1-14-3.5c.227-1.135.56-2.302 1-3.5.886.825 1.219 1.825 1 3 3.503.165 5.503-1.502 6-5-.303-1.614-.97-2.948-2-4 2.787-.977 5.787-1.31 9-1z"/><path style="opacity:1" fill="#7b771b" d="M42.5 21.5c.977 2.787 1.31 5.787 1 9 1.014 1.265 2.514 1.931 4.5 2 1.707-.008 3.207-.342 4.5-1v-1c4.434-2.974 7.1-1.64 8 4l2-1c1.77.535 2.104 1.369 1 2.5a24.963 24.963 0 0 1 2 7.5 5.728 5.728 0 0 1-3 1c-.203 1.89.463 3.39 2 4.5a6.975 6.975 0 0 0-3.5 2.5 4.452 4.452 0 0 0-1.5-2 14.73 14.73 0 0 0-1.5 5c-2.178 2.968-3.344 2.635-3.5-1 1.548-.321 2.215-1.321 2-3-4.149-.58-7.816.086-11 2a8.95 8.95 0 0 1-3-4 46.797 46.797 0 0 0 13 1v-9c-1.291-.237-2.291.096-3 1h-3c-4-1.333-8-1.333-12 0h-3c-2.787-.977-5.787-1.31-9-1h-1c.315-1.726.481-3.392.5-5-.816 1.323-1.983 1.99-3.5 2a25.15 25.15 0 0 1 4-4.5 4.932 4.932 0 0 0-3-.5c-.13-.876.203-1.543 1-2 1.175 1.355 2.175 1.188 3-.5-1.333-.667-1.333-1.333 0-2a8.434 8.434 0 0 1 4-.5 4.932 4.932 0 0 0 .5 3l1-1c.186-2.536.686-4.869 1.5-7 1.03 1.052 1.697 2.386 2 4-.497 3.498-2.497 5.165-6 5 .219-1.175-.114-2.175-1-3a23.615 23.615 0 0 0-1 3.5 138.434 138.434 0 0 0 14 3.5c.841-1.88 1.175-3.88 1-6 .475-2.582-.192-4.582-2-6l2-2z"/><path style="opacity:1" fill="#edeb0b" d="M62.5 44.5c-.904.709-1.237 1.709-1 3-1.89-.203-3.39.463-4.5 2 .441-6.63.108-13.297-1-20a55.19 55.19 0 0 1 3 7c.414.457.914.79 1.5 1l1-2c.572 2.417 1.572 4.584 3 6.5-.88.708-1.547 1.542-2 2.5z"/><path style="opacity:1" fill="#413b1c" d="M40.5 23.5c1.808 1.418 2.475 3.418 2 6h-4c-.475-2.582.192-4.582 2-6z"/><path style="opacity:1" fill="#fdf800" d="M41.5 35.5a52.417 52.417 0 0 1 13-1 6.845 6.845 0 0 0 1 4 150.56 150.56 0 0 1-30 .5c.88-1.356 1.213-2.856 1-4.5a29.355 29.355 0 0 1 12 2c1.226-.02 2.226-.353 3-1z"/><path style="opacity:1" fill="#98951a" d="M21.5 29.5a61.542 61.542 0 0 1-7 9.5c-.648 1.44-.98 2.94-1 4.5.779 2.427 1.945 2.427 3.5 0 .393 2.216-.107 4.216-1.5 6 .963.864.963 1.53 0 2-1.07-1.41-2.403-2.41-4-3-.166-4.346.001-8.68.5-13 1.512-2.457 2.846-2.457 4 0a28.04 28.04 0 0 1 1.5-5c1.275-1.689 2.608-2.022 4-1z"/><path style="opacity:1" fill="#f8f803" d="M24.5 40.5c-1.7.16-3.366-.007-5-.5.88-.708 1.547-1.542 2-2.5 1.517-.01 2.684-.677 3.5-2a29.816 29.816 0 0 1-.5 5z"/><path style="opacity:1" fill="#ede908" d="M25.5 40.5c3.213-.31 6.213.023 9 1v3h3v-3c4-1.333 8-1.333 12 0v3h3v-3c.709-.904 1.709-1.237 3-1v9a46.797 46.797 0 0 1-13-1c-3.283-2.637-6.616-2.47-10 .5-2.31.497-4.643.663-7 .5v-9z"/><path style="opacity:1" fill="#0b061b" d="M28.5 41.5h3v3h-3v-3z"/><path style="opacity:1" fill="#110d1b" d="M34.5 41.5h3v3h-3v-3z"/><path style="opacity:1" fill="#07041b" d="M39.5 41.5h3v3h-3v-3zM44.5 41.5h3v3h-3v-3zM49.5 41.5h3v3h-3v-3z"/><path style="opacity:1" fill="#66621e" d="M21.5 37.5c-.453.958-1.12 1.792-2 2.5 1.634.493 3.3.66 5 .5h1v9c2.357.163 4.69-.003 7-.5 3.384-2.97 6.717-3.137 10-.5-4.231-1.733-7.731-.733-10.5 3-1.404 5.544-1.904 11.21-1.5 17-.992.172-1.658-.162-2-1 1.646-3.59.98-6.756-2-9.5 1.05-2.503.05-4.003-3-4.5-.63 4.66-2.464 4.994-5.5 1-.05-2.244-.883-3.91-2.5-5 1.393-1.784 1.893-3.784 1.5-6-1.555 2.427-2.721 2.427-3.5 0a10.123 10.123 0 0 0 4-1.5l-1-1c1.29-1.802 2.956-2.969 5-3.5z"/><path style="opacity:1" fill="#f4f304" d="M18.5 41.5a9.864 9.864 0 0 1 6 1c-.825.886-1.825 1.219-3 1v3h3c-.398 4.259 1.602 6.092 6 5.5a15.276 15.276 0 0 0-1.5 4.5c-1.548-3.848-4.214-4.848-8-3a26.15 26.15 0 0 1-2.5-12z"/><path style="opacity:1" fill="#f4ef04" d="M65.5 43.5c1.4 12.941-4.266 20.942-17 24-1.869-2.135-2.536-4.802-2-8 3.043-.705 4.71-2.705 5-6h3c.156 3.635 1.322 3.968 3.5 1a14.73 14.73 0 0 1 1.5-5 4.452 4.452 0 0 1 1.5 2 6.975 6.975 0 0 1 3.5-2.5c-1.537-1.11-2.203-2.61-2-4.5a5.728 5.728 0 0 0 3-1z"/><path style="opacity:1" fill="#f9f702" d="M42.5 48.5a8.95 8.95 0 0 0 3 4v16h-3c.166-4.678 0-9.345-.5-14-1.988-3.338-4.321-3.672-7-1-.5 4.989-.666 9.989-.5 15h-4c-.404-5.79.096-11.456 1.5-17 2.769-3.733 6.269-4.733 10.5-3z"/><path style="opacity:1" fill="#eeda38" d="M76.5 2.5a380.842 380.842 0 0 1 1 39c.005 15.824-6.662 27.99-20 36.5a315.766 315.766 0 0 0-17 9.5h-4C24.178 81.013 13.845 72.18 5.5 61a62.089 62.089 0 0 1-4-12.5c1.663 1.993 2.83 4.326 3.5 7a2.427 2.427 0 0 0 .5-2 96.355 96.355 0 0 0 7 11c6.837 9.16 15.503 16.16 26 21a384.067 384.067 0 0 0 22-13.5c7.488-5.815 12.322-13.315 14.5-22.5a401.415 401.415 0 0 0 1.5-46v-1z"/><path style="opacity:1" fill="#66621c" d="M45.5 52.5a70.679 70.679 0 0 1 2 4c.886-.825 1.219-1.825 1-3h3c-.29 3.295-1.957 5.295-5 6-.536 3.198.131 5.865 2 8-.709.904-1.709 1.237-3 1v-16z"/><path style="opacity:1" fill="#d5d214" d="M54.5 53.5h-6c.219 1.175-.114 2.175-1 3a70.679 70.679 0 0 0-2-4c3.184-1.914 6.851-2.58 11-2 .215 1.679-.452 2.679-2 3z"/><path style="opacity:1" fill="#f9f302" d="M11.5 48.5c1.597.59 2.93 1.59 4 3 .963-.47.963-1.136 0-2 1.617 1.09 2.45 2.756 2.5 5 3.036 3.994 4.87 3.66 5.5-1 3.05.497 4.05 1.997 3 4.5 2.98 2.744 3.646 5.91 2 9.5a38.575 38.575 0 0 1-13-6c-.664-1.987-1.83-3.654-3.5-5a32.437 32.437 0 0 1-.5-8z"/></svg>
